X:1
M:4/4
K:C
L:1/8
C:Paul Spencer
D>D |CCDE FD3 |EEEF GFEE |F4/3E4/3F4/3 G4 |
C G5 z2 |A4/3G4/3F4/3 G2zG |
G>A G4 zG |EEE>F E3z |
[M:6/4]z2D>E F>ED2 z3A |
[M:4/4]AAA>G A>FF2 |EEED ECC>C |D<DD>C D3z |
G2A2 AD3 |C4 B4 |[M:6/4]A8 z2 |
